src/assets/flags/il.svg

<?xml version="1.0" encoding="UTF-8"?>
<svg xmlns="http://www.w3.org/2000/svg" xmlns:xlink="http://www.w3.org/1999/xlink" width="25px" height="px" viewBox="0 0 25 19" version="1.1">
<g id="surface1">
<rect x="0" y="0" width="25" height="19" style="fill:rgb(100%,100%,100%);fill-opacity:1;stroke:none;"/>
<path style=" stroke:none;fill-rule:evenodd;fill:rgb(0%,21.960784%,72.156864%);fill-opacity:1;" d="M 25.949219 4.285156 L -0.90625 4.285156 L -0.90625 1.785156 L 25.949219 1.785156 Z M 25.949219 17.328125 L -0.90625 17.328125 L -0.90625 14.828125 L 25.949219 14.828125 Z M 8.214844 7.09375 L 12.257812 14.226562 L 16.390625 7.128906 Z M 8.214844 7.09375 "/>
<path style=" stroke:none;fill-rule:evenodd;fill:rgb(100%,100%,100%);fill-opacity:1;" d="M 11.5 11.824219 L 12.265625 13.144531 L 13.050781 11.832031 Z M 11.5 11.824219 "/>
<path style=" stroke:none;fill-rule:evenodd;fill:rgb(0%,21.960784%,72.156864%);fill-opacity:1;" d="M 8.199219 11.929688 L 12.246094 4.800781 L 16.375 11.898438 Z M 8.199219 11.929688 "/>
<path style=" stroke:none;fill-rule:evenodd;fill:rgb(100%,100%,100%);fill-opacity:1;" d="M 11.5 7.128906 L 12.265625 5.808594 L 13.050781 7.125 Z M 9.890625 10.085938 L 9.09375 11.425781 L 10.597656 11.421875 L 9.890625 10.082031 Z M 9.109375 7.613281 L 10.621094 7.625 L 9.894531 8.976562 Z M 14.660156 10.105469 L 15.425781 11.425781 L 13.894531 11.40625 Z M 15.414062 7.613281 L 13.898438 7.625 L 14.625 8.976562 Z M 11.214844 7.613281 L 10.171875 9.523438 L 11.230469 11.398438 L 13.167969 11.441406 L 14.34375 9.523438 L 13.257812 7.589844 Z M 11.214844 7.613281 "/>
</g>
</svg>

<svg xmlns="http://www.w3.org/2000/svg" width="25" height="px" viewBox="0 0 25 19"><path d="M0 0h25v19H0z" style="fill:#fff;fill-opacity:1;stroke:none"/><path d="M25.95 4.285H-.907v-2.5h26.855Zm0 13.043H-.907v-2.5h26.855ZM8.214 7.094l4.043 7.133 4.133-7.098Zm0 0" style="stroke:none;fill-rule:evenodd;fill:#0038b8;fill-opacity:1"/><path d="m11.5 11.824.766 1.32.785-1.312Zm0 0" style="stroke:none;fill-rule:evenodd;fill:#fff;fill-opacity:1"/><path d="m8.2 11.93 4.046-7.13 4.129 7.098Zm0 0" style="stroke:none;fill-rule:evenodd;fill:#0038b8;fill-opacity:1"/><path d="m11.5 7.129.766-1.32.785 1.316Zm-1.61 2.957-.796 1.34 1.504-.004-.707-1.34Zm-.78-2.473 1.511.012-.726 1.352Zm5.55 2.492.766 1.32-1.531-.019Zm.754-2.492-1.516.012.727 1.352Zm-4.2 0-1.042 1.91 1.058 1.875 1.938.043 1.176-1.918-1.086-1.933Zm0 0" style="stroke:none;fill-rule:evenodd;fill:#fff;fill-opacity:1"/></svg>
